X:121
T:Hull Dock March. JGi.121
M:C|
L:1/8
Q:1/4=100
S:Joshua Gibbons MS,1823,Tealby,Lincs.
N:There are many problems in this tune.
R:march
O:Tealby,Lincolnshire
Z:VMP/R.Greig, 2009
K:C
GA/B/|”As writ”c2c>cc2Bc/d/|e2e>ee2ef|g2ecf2df|ecBcd4|
gf/e/d2d>dd2|ed/c/B2B>BB2|GA/B/ ce fedc|B2AGA2GF|
G2G>GG2::GA/B/|d2d>eA2AB|cBcdc4|cd/e/ e>c f>d g>e a>c|
B2G>GG2GA/B/|e2c>cc2cd/e/|f2d>dd2de|egec dfec|c2c>cc2:|

